X:1023
T:Theme From Dr. Zhivago
C:Joe Buchanan's Scottish Tome - Page 614.3
I:614 3
Z:Carl Allison
R:Waltz
L:1/4
M:3/4
K:G
B,3 | (D2 ^A) | B3- | B3 | F A G | D2 ^C | C3- | C3 |
C3 | (D2 E) | F3- | F3 | F | E D ^C | D2 c | B3- | B3 |
B,3 | (D2 ^A) | B3- | B3 | F A G | D2 ^C | C3- | C3 |
C3 | (D2 E) | F3- | F3 | E D ^C | (C2 A) | G3- | G3 :|

